X:0603
T:Miss Forbes's Farewell.
N:bar 12 is |B2G2G2 d4| in the book
M:2/4
L:1/16
Q:1/4=104
I: :: :|
Z:Jack Campin * www.campin.me.uk * 2009
K:G
 (GA)|    B3d   (cBAG)| B2d2``e3g | d3e   (dcBA)|B2A2A2
 (GA)|    B2d2  (cBAG)| B2d2``e2g2| d3e   (dBAG)|B2G2G2:|
  d2 |{a}(gfga) (gfed)|(efge) d4  |(Bded) (cBAG)|B2A2A2
  d2 |   (gfga) (gfed)|(edef) g2e2| d3e   (dcBA)|B2G2G2:|

